X:1
T: Contentment is Wealth
C:
R:Jig
Q:180
K:Am
M:6/8
L:1/16
|:AB|c2B2A2 A2a2g2|e2^d2e2 A4c2|B2A2G2 G2g2e2|d3cBA G4ab|c'2b2a2 g2b2a2|e2d2B2 g4e2|d2B2G2 G2A2B2|c2A2A2 A4:|
|:(3ABc|d2c2d2 A2F2A2|Bcd2B2 A2F2A2|d2c2d2 e2f2g2|f2e2d2 c2B2A2|d2c2d2 A2F2A2|Bcd2B2 A2F2A2|d2c2d2 e2f2g2|f2d2d2 d4:|
|:(3ABc|d4e2 f4g2|a2f2d2 e2c2A2|A2c2d2 e2c2A2|ABc2d2 e2c2A2|d4e2 f4g2|a2f2d2 e2c2A2|ABc2d2 e2a2g2|f2d2d2 d4:|
